dist/img/svg/ic_loupe.svg

<svg width="21" height="21" viewBox="0 0 21 21" fill="none" xmlns="http://www.w3.org/2000/svg">
<path d="M9.60293 0.51062C4.74656 0.51062 0.795349 4.46183 0.795349 9.3182C0.795349 14.1748 4.74656 18.1258 9.60293 18.1258C14.4596 18.1258 18.4105 14.1748 18.4105 9.3182C18.4105 4.46183 14.4596 0.51062 9.60293 0.51062ZM9.60293 16.4998C5.64304 16.4998 2.42136 13.2781 2.42136 9.31824C2.42136 5.35835 5.64304 2.13664 9.60293 2.13664C13.5628 2.13664 16.7845 5.35832 16.7845 9.3182C16.7845 13.2781 13.5628 16.4998 9.60293 16.4998Z" fill="black"/>
<path d="M20.5572 19.1228L15.8959 14.4616C15.5783 14.1439 15.0639 14.1439 14.7463 14.4616C14.4287 14.7789 14.4287 15.2938 14.7463 15.6112L19.4076 20.2724C19.5664 20.4312 19.7742 20.5106 19.9824 20.5106C20.1902 20.5106 20.3983 20.4312 20.5572 20.2724C20.8748 19.9551 20.8748 19.4402 20.5572 19.1228Z" fill="black"/>
</svg>

<svg width="21" height="21" viewBox="0 0 21 21" fill="none" xmlns="http://www.w3.org/2000/svg"><path d="M9.603.51C4.747.51.795 4.463.795 9.319c0 4.857 3.952 8.808 8.808 8.808 4.857 0 8.807-3.951 8.807-8.808 0-4.856-3.95-8.807-8.807-8.807zm0 15.99c-3.96 0-7.182-3.222-7.182-7.182 0-3.96 3.222-7.181 7.182-7.181 3.96 0 7.182 3.221 7.182 7.181S13.563 16.5 9.603 16.5z" fill="#000"/><path d="M20.557 19.123l-4.661-4.661a.812.812 0 10-1.15 1.15l4.662 4.66a.81.81 0 001.15 0 .813.813 0 000-1.15z" fill="#000"/></svg>
